X:2476
T:Hare in the Heather, The
O:england
M:4/4
L:1/8
R:reel
D:Paddy Glackin: Ceol ar an bhFidil le Paddy Glackin. Matt Molloy:
D:Heathery Breeze.
K:EDor
B2EB GBEB|~B2EB ADFA|1 B2EB GBEB|BcdB ADFA:|2 BAGF EFGA|BcdB ADFA||
|:~E3B BAFD|~E3B ADFD|~E3B BAFA|BcdB ADFA:|
|:B2eB fBeB|~B2dB ADFA|1 B2eB fBeB|dcdB ADFA:|2 (3Bcd eg fdec|dcdB ADFA|
|
"Variations:"
BEGF EFGA|BEGB ADFA|1 BEGF EFGA|BAdB ADFA:|2 BAGF EFGA|BAdB ADFD||
|:~E3B BAFD|EBGB ADFD|~E3B BA (3FGA|1 BAdB ADFD:|2 BAdB ADFA||
|:B2eB fBeB|~B2dB ADFA|1 Bdeg fdec|dcdB ADFA:|2 (3Bcd eg fdec|dcdB ADFA|
|


